X:172
T: Drei Koenige
N: A0534
O: Europa, Mitteleuropa, Deutschland
N: Andernacher Gsgb. 1608 S. 135.
R: Romanze, Ballade, Lied, religioeses Lied
M: 3/2
L: 1/2
K: G
d2d | B2c | d2d | B3
d2d | B2c | d2d | B3
B2B | B2A | B2d | c3
B2B | A2G | A2A | G3

